X: 527
T: Daracık Sokakları Duman Bürüdü
C: (Anonim)
O: Turkey
F: http://compmusic.upf.edu/node/140
N: saba--turku--aksak--daracik_sokaklari--istanbul
N: makam= saba
N: form= turku
N: usul= aksak = 9/8
M: 9/8
L: 1/16
K: C _2/4B _3/4d  
Q: 1/4=204
%%MIDI tuningsystem comma53
B2B4B2 d4 c4 B2 | c4B2 A2A2 B2c2 B2c2  | \
w:  ARANAĞME  |   | 
B2A6 B2A2 B6 | B2 B4 B2d4c4B2  | 
w:   |  ARANAĞME  | 
c4 B2A2 A2B2 c2B2 c2 | B2 A6A4cd cBAB  | \
w:   |   | 
c4 c2c2 c4 c4 d2 | 
w:  *  Da ra cık  so  | 
e2 d2d2 c2c2 d2c4B2  | z4 B2B2 d4 c4 B2 | \
w:  kak *  la rı  du *  man   |  bü rü dü    | 
B2 B4 B2d4c4B2  | c4 B2A2 A2B2 c2B2 c2 | 
w:  Kül han  da  bey ler   |  kız la rı  al *  dı   | 
B2 A6B2 A2B6  | B2B4B2 d4 c4 B2 | c4B2 A2A2 B2c2 B2c2  | \
w:  yü rü dü    |  Kül han  da  bey ler   |  kız la rı  al *  dı   | 
B2A6 A4 cdcB AB | 
w:  yü rü dü    | 
c4c2 c2c4c4d2  | e2d2 d2c2 c2d2 c4 B2 | \
w:  *  Be nim  yâ rim   |  kü *  çü *  cük *  tü   | 
z4B2 B2d4c4B2  | B2B6 d4 c4 B2 | 
w:  bü yü dü    |  Sü rü den  ay  | 
c4B2 A2A2 B2c2 B2c2  | B2A6 B2A2 B6 | \
w:  rı lan  *  sür *  me  |  li  ko yun  | 
B2 B6d4c4B2  | c4 B2A2 A2B2 c2B2 c2 | 
w:  Şa fak lar  a  |  tı yor  *  gel  *  yâ  | 
B2 A6A4z4z2  | B2B6 d4 c4 B2 | c4B2 A2A2 B2c2 B2c2  | \
w:  rim_ u yu   |  Sü rü den  ay  |  rı lan  *  sür *  me  | 
B2A6 B2A2 B6 | 
w:  li  ko yun  | 
B2 B6d4c4B2  | c4 B2A2 A2B2 c2B2 c2 | \
w:  Şa fak lar  a  |  tı yor  *  gel  *  yâ  | 
B2 A6A4z4z2  | B2B4B2 d4 c4 B2 | 
w:  rim_ u yu   |  ARANAĞME  | 
c4B2 A2A2 B2c2 B2c2  | B2A6 B2A2 B6 | \
w:   |   | 
B2 B4 B2d4c4B2  | c4 B2A2 A2B2 c2B2 c2 | 
w:  ARANAĞME  |   | 
B2 A6A4cd cBAB  | c4 c2c2 c4 c4 d2 | \
w:   |  *  Yük sek  mi na  | 
e2 d2d2 c2c2 d2c4B2  | 
w:  re *  de  *  kan *  dil  | 
B4 B4 d4 c4 B2 | B4B4d4c4B2  | c4 B2A2 A2B2 c2B2 c2 | \
w:  ler  ya nar    |  Kan dil ler  şav  |  kı na  *  bül *  bül  | 
B2 A4 A2B2 A2B6  | 
w:  ler  *  ka nar    | 
B4 B4 d4 c4 B2 | c4B2 A2A2 B2c2 B2c2  | \
w:  Kan dil ler  şav  |  kı na  *  bül *  bül  | 
B2A4A2 A4 cdcB AB | 
w:  ler  *  ka nar   SAZ  | 
c4c2 c2c4c4d2  | e2d2 d2c2 c2d2 c4 B2 | \
w:  *  İn san  sev di  |  ği *  ne  *  böy *  le   | 
z4B2 B2d4c4B2  | B2B6 d4 c4 B2 | 
w:  mi  ya nar    |  Sü rü den  ay  | 
c4B2 A2A2 B2c2 B2c2  | B2A6 B2A2 B6 | \
w:  rı lan  *  sür *  me  |  li  ko yun  | 
B2 B6d4c4B2  | c4 B2A2 A2B2 c2B2 c2 | 
w:  Şa fak lar  a  |  tı yor  *  gel  *  yâ  | 
B2 A6A4z4z2  | B2B6 d4 c4 B2 | c4B2 A2A2 B2c2 B2c2  | \
w:  rim_ u yu   |  Sü rü den  ay  |  rı lan  *  sür *  me  | 
B2A6 B2A2 B6 | 
w:  li  ko yun  | 
B2 B6d4c4B2  | c4 B2A2 A2B2 c2B2 c2 | \
w:  Şa fak lar  a  |  tı yor  *  gel  *  yâ  | 
B2 A6A4z4z2  | |


